X:404
T:Tarantella 12 Gennaio
M:6/8
L:1/8
C:© Paul Gitlitz, 2016
K:Am
"Am"a^ga "E7"e^de |"C"cBc "Am"A2 A |"E7"^GAB cB^G |"Am"A^GA "E7"E3|!
"Am"a^ga "E7"e^de |"C"cBc "Am"A2A |"E7"^GAB E^F^G |1"Am"A3-A2^g:|2"Am"A3- A2^G|!
|"G"G2G GAB|"C"cd^d e3|"Am"a2a abc'|"E7"b2^g e2d|!
"C"cBc "E7"e^de|"Am"a^ga "C"c'3|"E7"b2^g e^fg|"Am"a3-a2^g|!
"G"g2g gab|"C"c'2d' e'3|"Am"a2a a2b|"E7"^g2e2 d2B|!
"C"cBc "E7"e^de|"Am"a^ga "C"c'3|"E7"b2^g e^fg|"Am"a3 A3|]
